docs/couper-logo.svg

<?xml version="1.0" encoding="UTF-8"?>
<svg width="152px" height="165px" viewBox="0 0 152 165" version="1.1" xmlns="http://www.w3.org/2000/svg" xmlns:xlink="http://www.w3.org/1999/xlink">
    <!-- Generator: Sketch 50.2 (55047) - http://www.bohemiancoding.com/sketch -->
    <title>couper 4</title>
    <desc>Created with Sketch.</desc>
    <defs></defs>
    <g id="Page-1" stroke="none" stroke-width="1" fill="none" fill-rule="evenodd">
        <g id="Desktop-HD-Copy" transform="translate(-871.000000, -508.000000)">
            <g id="couper-4" transform="translate(871.000000, 508.000000)">
                <g id="Group-39">
                    <path d="M87.3947922,42.7749643 C83.6806745,42.07565 79.857851,41.6687214 75.9384,41.6687214 C42.0312235,41.6687214 14.5437333,69.1077643 14.5437333,102.955179 L14.5437333,114.285879 L37.4565176,120.721379 L37.4565176,102.955179 C37.4565176,73.0203071 58.9682039,48.1373786 87.3947922,42.7749643" id="Fill-2" fill="#E3E4E4"></path>
                    <polygon id="Path" fill="#65B32E" points="97.2619647 0.363964286 88.6983569 15.1701357 80.219298 0.363964286 71.649651 15.1852071 63.1132196 0.379035714 54.5435725 15.1912357 52.007102 10.8114786 39.8501608 10.8114786 39.8501608 16.84005 48.5194549 16.84005 54.5435725 27.2483786 63.1011412 12.45125 71.6405922 27.2574214 80.1921216 12.4663214 88.6711804 27.2694786 97.2347882 12.4663214 99.7682392 16.8882786 109.874867 16.8882786 109.874867 10.8597071 103.270984 10.8597071"></polygon>
                    <path d="M17.564851,114.74827 L17.564851,102.95337 C17.564851,70.8240986 43.7508902,44.6842129 75.9368902,44.6842129 C108.12591,44.6842129 134.311949,70.8240986 134.311949,102.95337 L134.311949,114.709084 C128.103635,116.433256 107.899439,121.222956 75.1970863,121.222956 C42.6608118,121.222956 23.486302,116.481484 17.564851,114.74827 M30.5068902,13.5978843 C30.5068902,11.16837 32.4847333,9.19401286 34.9185373,9.19401286 C37.3523412,9.19401286 39.3301843,11.16837 39.3301843,13.5978843 C39.3301843,16.0273986 37.3523412,18.0017557 34.9185373,18.0017557 C32.4847333,18.0017557 30.5068902,16.0273986 30.5068902,13.5978843 M112.277871,13.5978843 C112.277871,11.16837 114.258733,9.19401286 116.692537,9.19401286 C119.126341,9.19401286 121.104184,11.16837 121.104184,13.5978843 C121.104184,16.0273986 119.126341,18.0017557 116.692537,18.0017557 C114.258733,18.0017557 112.277871,16.0273986 112.277871,13.5978843 M119.899361,56.09027 L119.899361,23.4756986 C124.087557,22.1132414 127.1434,18.2248129 127.1434,13.5978843 C127.1434,7.84662714 122.453949,3.16544143 116.692537,3.16544143 C110.928106,3.16544143 106.238655,7.84662714 106.238655,13.5978843 C106.238655,18.36347 109.475675,22.3483557 113.860145,23.5902414 L113.860145,51.0955986 C103.206969,43.3096986 90.1230078,38.6556414 75.9368902,38.6556414 C61.7537922,38.6556414 48.6698314,43.3096986 38.0166549,51.0955986 L38.0166549,23.5088557 C42.2622235,22.18257 45.3694,18.2639986 45.3694,13.5978843 C45.3694,7.84662714 40.679949,3.16544143 34.9185373,3.16544143 C29.1571255,3.16544143 24.4676745,7.84662714 24.4676745,13.5978843 C24.4676745,18.3242843 27.6533608,22.2790271 31.9774392,23.5570843 L31.9774392,56.09027 C19.4249294,67.8309129 11.5256353,84.46977 11.5256353,102.95337 L11.5256353,117.298356 L11.5256353,119.058699 L11.5256353,152.140484 L17.564851,152.140484 L17.564851,121.027027 C23.1934,122.567327 34.7403804,125.132484 52.4111255,126.434656 L52.3899882,152.13747 L58.4292039,152.143499 L58.4503412,126.811441 C63.5957529,127.082727 69.1397529,127.251527 75.1970863,127.251527 C81.7768118,127.251527 87.7979098,127.052584 93.3660667,126.739099 L93.347949,152.13747 L99.3871647,152.143499 L99.408302,126.341213 C116.940145,124.987799 128.644145,122.452784 134.311949,120.963727 L134.311949,152.140484 L140.351165,152.140484 L140.351165,119.109941 L140.351165,117.298356 L140.351165,102.95337 C140.351165,84.46977 132.451871,67.8309129 119.899361,56.09027" id="Fill-4" fill="#1A1B1C"></path>
                    <path d="M82.7029255,87.3092271 C82.7029255,94.78767 88.7753569,100.849399 96.2670039,100.849399 C103.758651,100.849399 109.828063,94.78767 109.828063,87.3092271 C109.828063,79.8337986 103.758651,73.7690557 96.2670039,73.7690557 C88.7753569,73.7690557 82.7029255,79.8337986 82.7029255,87.3092271" id="Fill-6" fill="#3EA1C1"></path>
                    <path d="M96.266098,76.7842457 C90.4533529,76.7842457 85.7216275,81.5046171 85.7216275,87.3101314 C85.7216275,93.1126314 90.4533529,97.8360171 96.266098,97.8360171 C102.078843,97.8360171 106.810569,93.1126314 106.810569,87.3101314 C106.810569,81.5046171 102.078843,76.7842457 96.266098,76.7842457 M96.266098,103.864589 C87.1227255,103.864589 79.6824118,96.4404029 79.6824118,87.3101314 C79.6824118,78.1828743 87.1227255,70.7556743 96.266098,70.7556743 C105.409471,70.7556743 112.849784,78.1828743 112.849784,87.3101314 C112.849784,96.4404029 105.409471,103.864589 96.266098,103.864589" id="Fill-8" fill="#1A1B1C"></path>
                    <path d="M100.991784,87.3092271 C100.991784,84.7048843 98.8750392,82.5948843 96.266098,82.5948843 C93.6571569,82.5948843 91.5434314,84.7048843 91.5434314,87.3092271 C91.5434314,89.91357 93.6571569,92.0265843 96.266098,92.0265843 C98.8750392,92.0265843 100.991784,89.91357 100.991784,87.3092271" id="Fill-10" fill="#1A1B1C"></path>
                    <path d="M104.857788,82.5141014 C105.664024,80.0363586 104.30218,77.3747443 101.820063,76.5729443 C99.3379451,75.7711443 96.674651,77.1275729 95.8684157,79.60833 C95.0652,82.0830586 96.4270431,84.7446729 98.9061412,85.5464729 C101.391278,86.3482729 104.054573,84.9918443 104.857788,82.5141014" id="Fill-12" fill="#FFFFFF"></path>
                    <path d="M28.8781137,164.68142 L22.838898,164.68142 L22.838898,161.667134 C22.838898,157.055277 19.0825059,153.305506 14.4655255,153.305506 C9.84552549,153.305506 6.08913333,157.055277 6.08913333,161.667134 L6.08913333,164.68142 L0.0499176471,164.68142 L0.0499176471,161.667134 C0.0499176471,153.733534 6.51791765,147.276934 14.4655255,147.276934 C22.4101137,147.276934 28.8781137,153.733534 28.8781137,161.667134 L28.8781137,164.68142 Z" id="Fill-14" fill="#AA64AA"></path>
                    <path d="M151.748675,164.68142 L145.709459,164.68142 L145.709459,161.667134 C145.709459,157.055277 141.953067,153.305506 137.336086,153.305506 C132.716086,153.305506 128.959694,157.055277 128.959694,161.667134 L128.959694,164.68142 L122.920478,164.68142 L122.920478,161.667134 C122.920478,153.733534 129.385459,147.276934 137.336086,147.276934 C145.283694,147.276934 151.748675,153.733534 151.748675,161.667134 L151.748675,164.68142 Z" id="Fill-16" fill="#EB3D3E"></path>
                    <path d="M69.8357725,164.68142 L63.7965569,164.68142 L63.7965569,161.667134 C63.7965569,157.055277 60.0401647,153.305506 55.4201647,153.305506 C50.8031843,153.305506 47.0467922,157.055277 47.0467922,161.667134 L47.0467922,164.68142 L41.0075765,164.68142 L41.0075765,161.667134 C41.0075765,153.733534 47.4725569,147.276934 55.4201647,147.276934 C63.3677725,147.276934 69.8357725,153.733534 69.8357725,161.667134 L69.8357725,164.68142 Z" id="Fill-18" fill="#3EA1C1"></path>
                    <path d="M110.792224,164.68142 L104.753008,164.68142 L104.753008,161.667134 C104.753008,157.055277 100.996616,153.305506 96.3766157,153.305506 C91.7596353,153.305506 88.0032431,157.055277 88.0032431,161.667134 L88.0032431,164.68142 L81.9640275,164.68142 L81.9640275,161.667134 C81.9640275,153.733534 88.4290078,147.276934 96.3766157,147.276934 C104.324224,147.276934 110.792224,153.733534 110.792224,161.667134 L110.792224,164.68142 Z" id="Fill-20" fill="#F6AB1F"></path>
                </g>
            </g>
        </g>
    </g>
</svg>

<?xml version="1.0" encoding="UTF-8" standalone="no"?><!DOCTYPE svg PUBLIC "-//W3C//DTD SVG 1.1//EN" "http://www.w3.org/Graphics/SVG/1.1/DTD/svg11.dtd"><svg width="184" height="200" viewBox="0 0 152 165" version="1.1" xmlns="http://www.w3.org/2000/svg" xmlns:xlink="http://www.w3.org/1999/xlink" xml:space="preserve" xmlns:serif="http://www.serif.com/" style="fill-rule:evenodd;clip-rule:evenodd;stroke-linejoin:round;stroke-miterlimit:2;"><g id="Page-1"><g id="Desktop-HD-Copy"><g id="couper-4"><g id="Group-39"><g id="Layer1"><path d="M15,116c0,0 -6.651,-73.835 61,-74c65.001,-0.158 62,74 62,74c0,0 -58.325,18.728 -123,0Z" style="fill:#fff;"/></g><path id="Fill-2" d="M87.395,42.775c-3.714,-0.699 -7.537,-1.106 -11.457,-1.106c-33.907,-0 -61.394,27.439 -61.394,61.286l-0,11.331l22.913,6.435l-0,-17.766c-0,-29.935 21.511,-54.818 49.938,-60.18" style="fill:#e3e4e4;"/><path id="Path" d="M97.262,0.364l-8.564,14.806l-8.479,-14.806l-8.569,14.821l-8.537,-14.806l-8.569,14.812l-2.537,-4.38l-12.157,0l0,6.029l8.669,0l6.025,10.408l8.557,-14.797l8.54,14.806l8.551,-14.791l8.479,14.803l8.564,-14.803l2.533,4.422l10.107,0l-0,-6.028l-6.604,-0l-6.009,-10.496Z" style="fill:#65b32e;"/><path id="Fill-12" d="M40.784,15.473c1.062,-3.264 -0.732,-6.771 -4.002,-7.827c-3.27,-1.056 -6.778,0.731 -7.84,3.999c-1.059,3.26 0.736,6.766 4.001,7.823c3.274,1.056 6.783,-0.731 7.841,-3.995" style="fill:#fff;"/><path id="Fill-121" serif:id="Fill-12" d="M122.784,15.473c1.062,-3.264 -0.732,-6.771 -4.002,-7.827c-3.27,-1.056 -6.778,0.731 -7.84,3.999c-1.059,3.26 0.736,6.766 4.001,7.823c3.274,1.056 6.783,-0.731 7.841,-3.995" style="fill:#fff;"/><path id="Fill-4" d="M17.565,114.748l-0,-11.795c-0,-32.129 26.186,-58.269 58.372,-58.269c32.189,0 58.375,26.14 58.375,58.269l-0,11.756c-6.208,1.724 -26.413,6.514 -59.115,6.514c-32.536,-0 -51.711,-4.742 -57.632,-6.475m12.942,-101.15c-0,-2.43 1.978,-4.404 4.412,-4.404c2.433,0 4.411,1.974 4.411,4.404c0,2.429 -1.978,4.404 -4.411,4.404c-2.434,-0 -4.412,-1.975 -4.412,-4.404m81.771,-0c-0,-2.43 1.981,-4.404 4.415,-4.404c2.433,0 4.411,1.974 4.411,4.404c0,2.429 -1.978,4.404 -4.411,4.404c-2.434,-0 -4.415,-1.975 -4.415,-4.404m7.621,42.492l0,-32.614c4.189,-1.363 7.244,-5.251 7.244,-9.878c0,-5.751 -4.689,-10.433 -10.45,-10.433c-5.765,0 -10.454,4.682 -10.454,10.433c-0,4.765 3.237,8.75 7.621,9.992l0,27.506c-10.653,-7.786 -23.737,-12.44 -37.923,-12.44c-14.183,-0 -27.267,4.654 -37.92,12.44l-0,-27.587c4.245,-1.326 7.352,-5.245 7.352,-9.911c0,-5.751 -4.689,-10.433 -10.45,-10.433c-5.762,0 -10.451,4.682 -10.451,10.433c-0,4.726 3.185,8.681 7.509,9.959l0,32.533c-12.552,11.741 -20.451,28.38 -20.451,46.863l-0,49.187l6.039,0l-0,-31.113c5.628,1.54 17.175,4.105 34.846,5.408l-0.021,25.702l6.039,0.006l0.021,-25.332c5.146,0.272 10.69,0.441 16.747,0.441c6.58,-0 12.601,-0.199 18.169,-0.513l-0.018,25.398l6.039,0.006l0.021,-25.802c17.532,-1.353 29.236,-3.888 34.904,-5.377l-0,31.176l6.039,0l0,-49.187c0,-18.483 -7.899,-35.122 -20.452,-46.863" style="fill:#1a1b1c;"/><path id="Fill-6" d="M82.703,87.309c-0,7.479 6.072,13.54 13.564,13.54c7.492,0 13.561,-6.061 13.561,-13.54c0,-7.475 -6.069,-13.54 -13.561,-13.54c-7.492,0 -13.564,6.065 -13.564,13.54" style="fill:#3ea1c1;"/><path id="Fill-8" d="M96.266,76.784c-5.813,0 -10.544,4.721 -10.544,10.526c-0,5.803 4.731,10.526 10.544,10.526c5.813,0 10.545,-4.723 10.545,-10.526c-0,-5.805 -4.732,-10.526 -10.545,-10.526m0,27.081c-9.143,-0 -16.584,-7.425 -16.584,-16.555c0,-9.127 7.441,-16.554 16.584,-16.554c9.143,-0 16.584,7.427 16.584,16.554c-0,9.13 -7.441,16.555 -16.584,16.555" style="fill:#1a1b1c;"/><path id="Fill-10" d="M100.992,87.309c-0,-2.604 -2.117,-4.714 -4.726,-4.714c-2.609,-0 -4.723,2.11 -4.723,4.714c0,2.605 2.114,4.718 4.723,4.718c2.609,-0 4.726,-2.113 4.726,-4.718" style="fill:#1a1b1c;"/><path id="Fill-122" serif:id="Fill-12" d="M104.858,82.514c0.806,-2.478 -0.556,-5.139 -3.038,-5.941c-2.482,-0.802 -5.145,0.555 -5.952,3.035c-0.803,2.475 0.559,5.137 3.038,5.938c2.485,0.802 5.149,-0.554 5.952,-3.032" style="fill:#fff;"/><path id="Fill-14" d="M28.878,164.681l-6.039,0l-0,-3.014c-0,-4.612 -3.756,-8.361 -8.373,-8.361c-4.62,-0 -8.377,3.749 -8.377,8.361l0,3.014l-6.039,0l-0,-3.014c-0,-7.933 6.468,-14.39 14.416,-14.39c7.944,-0 14.412,6.457 14.412,14.39l0,3.014Z" style="fill:#aa64aa;"/><path id="Fill-16" d="M151.749,164.681l-6.04,0l0,-3.014c0,-4.612 -3.756,-8.361 -8.373,-8.361c-4.62,-0 -8.376,3.749 -8.376,8.361l-0,3.014l-6.04,0l0,-3.014c0,-7.933 6.465,-14.39 14.416,-14.39c7.948,-0 14.413,6.457 14.413,14.39l-0,3.014Z" style="fill:#eb3d3e;"/><path id="Fill-18" d="M69.836,164.681l-6.039,0l-0,-3.014c-0,-4.612 -3.757,-8.361 -8.377,-8.361c-4.617,-0 -8.373,3.749 -8.373,8.361l-0,3.014l-6.039,0l-0,-3.014c-0,-7.933 6.465,-14.39 14.412,-14.39c7.948,-0 14.416,6.457 14.416,14.39l-0,3.014Z" style="fill:#3ea1c1;"/><path id="Fill-20" d="M110.792,164.681l-6.039,0l0,-3.014c0,-4.612 -3.756,-8.361 -8.376,-8.361c-4.617,-0 -8.374,3.749 -8.374,8.361l0,3.014l-6.039,0l0,-3.014c0,-7.933 6.465,-14.39 14.413,-14.39c7.947,-0 14.415,6.457 14.415,14.39l0,3.014Z" style="fill:#f6ab1f;"/></g></g></g></g></svg>
